X:21
T:Boys of Ballinahinch
Z: id:dc-reel-21
M:C
L:1/8
K:D Major
g|fedf eBB2|fedf gbag|fedf eBBc|dBAF EFDe|!
fedf eBBA|Bdef gbag|fedf eBBc|dBAF EFD|]!
e|faaf d3e|faaf gbag|faaf afdf|gfed BdAe|!
faaf afde|faaf g3a|bgaf gfed|Bdef gba|]!

